X:CM RTB
T:Rosin The Bow
R:Colne #3
S:Chingford Morris
Z:<djl@colourcountry.net>
M:6/8
K:G
P:A
D| GFG BGB | d3 efg |1 dBG GAB | E3-E2D :|2 dBG ABA | G3-G
P:B
Bc| d2d def | g2g gfe | dBG GAB | E3-E2D [P:(A2)]

